X: 42118
T: Warlocks, The
R: strathspey
M: 4/4
K: Eminor
|:B<E G>F E2 (3EFG|A<B A>F D2 (3DEF|G>E F>D E<e e>f|1 g>e (3fed e2 e>A:|2 g>e (3fed e2 e>B||
(3efg B>g e<Bg>e|(3fga d>a f<d a>f|(3efg B>g e<B g>e|d>B A>F E2 E>B|
(3efg B>g e<Bg>e|f<g d>a f<d a>f|e>g f>e d>B A>F|G>B A>F E2 E2||

